X:25
T:Evening Tide
R:reel
N: hornpipe played as a reel
D:John Campbell, Cape Breton Violin Music (1975-2006)
Z:Paul Stewart Cranford (P.S.C.), <http://www.cranfordpub.com>
L:1/8
M:C|
Q:333
K:D
AG|FDFA dfaf|gbgd B2 ed|ceBc ABGA|FAGF E2 AG|
FDFA DFAd|cedB A2 g2|fafd Bgec|d2 f2 d2:|
|:FG|Adcd fdAF|GABG DGBG|FAde fdgf|ecdB A2 FG|
Adcd fdAF|GABG DGBG|FAdf eace|d2 f2 d2:|
|:FG|AdFd AdFd|BdGd BdGB|AdFd AdFD|EA,CE GFED|
FdAd FdAd|BdGd BdGB|Aceg faec|d2 f2 d2:|
|:ef|g2 eg f2 df|e2 ce dcBA|GFGB AFdF|GFED EA,CE|
FEDF ADFA|cedB A2 g2|fafd Bgec|d2 f2 d2:|
